icons/4_Outdated/Dashlane v1.svg

<svg width="1024" height="1024" viewBox="0 0 1024 1024" fill="none" xmlns="http://www.w3.org/2000/svg">
<g clip-path="url(#clip0_3_521)">
<path d="M512 1024C794.77 1024 1024 794.77 1024 512C1024 229.23 794.77 0 512 0C229.23 0 0 229.23 0 512C0 794.77 229.23 1024 512 1024Z" fill="#728DBE"/>
<path d="M596.34 481.94C590.793 477.846 586.289 472.503 583.191 466.345C580.094 460.186 578.49 453.384 578.51 446.49C578.51 442.13 580.89 433.59 582.51 428.09C583.31 425.36 583.51 424 586.56 423.37C601.65 420.31 608.27 420.78 609.56 418.98C613.64 412.17 615.28 403.08 615.28 403.08L498.79 365.89C498.79 365.89 506.12 384.81 509.97 386.48L562.9 410C562.9 410 535.68 416 520.67 420.51L517.12 421.62C517.12 421.62 522.9 431.31 531.8 436.76C541.64 433.95 559.71 429.3 559.71 429.3C534.17 479.54 481.71 512.38 424.59 512.38C421.97 512.38 411.08 512.24 404.24 512.8C398.32 513.31 395.46 518.2 401.24 520.8C411.49 526.284 419.163 535.592 422.59 546.7C424.71 553.5 420.98 557.6 416.3 561.33C406.04 569.24 379.87 588.8 354.11 607.98C351.11 602.27 348.26 596.49 345.71 590.72C322.5 538.24 311.22 465.35 311.22 367.88V367L512.22 302.48L713.22 366.97V367.87C713.36 400.333 711.835 432.783 708.65 465.09L708.38 467.66H741.33L741.54 465.56C744.54 435.87 746.03 403 746.03 367.87V343L512.29 268L278.45 343V367.8C278.45 469.93 290.65 547.16 315.75 603.91C319.3 611.91 323.25 619.91 327.54 627.7C307.1 642.89 291.42 654.5 291.42 654.5C296.09 662.66 301.42 670.5 301.42 670.5L429.96 578.61C499.057 532.084 580.499 507.304 663.8 507.46H702.8C697.15 539.46 689.09 567.38 678.8 590.69C667.048 617.234 651.261 641.801 632 663.52C616.129 681.386 598.19 697.301 578.56 710.93C544.77 734.48 515.74 744.51 512.5 745.6L512.26 745.68L511.64 745.47C508.48 744.42 479.76 734.47 445.85 710.87C426.241 697.242 408.322 681.33 392.47 663.47C387.55 657.91 382.64 651.83 377.47 644.87L376.12 643L349.46 662.11L350.87 664.01C356.74 671.93 362.31 678.85 367.87 685.18C385.452 704.986 405.325 722.633 427.07 737.75C463.98 763.48 495.35 774.6 501.23 776.55C501.48 776.64 507.3 778.66 510.23 779.47C510.98 779.68 511.75 779.86 511.75 779.86L512.24 779.97L512.74 779.86C512.74 779.86 513.55 779.69 514.31 779.47C517.22 778.65 523.04 776.63 523.25 776.55C529.14 774.55 560.4 763.55 597.31 737.81C619.074 722.693 638.964 705.043 656.56 685.23C678.056 661.006 695.681 633.606 708.81 604C720.98 576.49 729.94 544.84 736.12 507.5H764.12C765.23 500.5 767.12 488.77 767.12 488.77H663.8C619.8 487.94 607.03 489.61 596.34 481.97" fill="white"/>
</g>
<defs>
<clipPath id="clip0_3_521">
<rect width="1024" height="1024" fill="white"/>
</clipPath>
</defs>
</svg>

<svg xmlns="http://www.w3.org/2000/svg" width="1024" height="1024" fill="none">
   <g clip-path="url(#a)">
      <path fill="#728DBE" d="M512 1024c282.77 0 512-229.23 512-512S794.77 0 512 0 0 229.23 0 512s229.23 512 512 512Z"/>
      <path fill="#fff" d="M596.34 481.94a43.907 43.907 0 0 1-17.83-35.45c0-4.36 2.38-12.9 4-18.4.8-2.73 1-4.09 4.05-4.72 15.09-3.06 21.71-2.59 23-4.39 4.08-6.81 5.72-15.9 5.72-15.9l-116.49-37.19s7.33 18.92 11.18 20.59L562.9 410s-27.22 6-42.23 10.51l-3.55 1.11s5.78 9.69 14.68 15.14c9.84-2.81 27.91-7.46 27.91-7.46-25.54 50.24-78 83.08-135.12 83.08-2.62 0-13.51-.14-20.35.42-5.92.51-8.78 5.4-3 8a44.13 44.13 0 0 1 21.35 25.9c2.12 6.8-1.61 10.9-6.29 14.63-10.26 7.91-36.43 27.47-62.19 46.65-3-5.71-5.85-11.49-8.4-17.26-23.21-52.48-34.49-125.37-34.49-222.84V367l201-64.52 201 64.49v.9a949.216 949.216 0 0 1-4.57 97.22l-.27 2.57h32.95l.21-2.1c3-29.69 4.49-62.56 4.49-97.69V343l-233.74-75-233.84 75v24.8c0 102.13 12.2 179.36 37.3 236.11 3.55 8 7.5 16 11.79 23.79-20.44 15.19-36.12 26.8-36.12 26.8 4.67 8.16 10 16 10 16l128.54-91.89a417.274 417.274 0 0 1 233.84-71.15h39c-5.65 32-13.71 59.92-24 83.23a281.56 281.56 0 0 1-46.8 72.83 301.405 301.405 0 0 1-53.44 47.41c-33.79 23.55-62.82 33.58-66.06 34.67l-.24.08-.62-.21c-3.16-1.05-31.88-11-65.79-34.6a301.24 301.24 0 0 1-53.38-47.4c-4.92-5.56-9.83-11.64-15-18.6l-1.35-1.87-26.66 19.11 1.41 1.9c5.87 7.92 11.44 14.84 17 21.17a334.397 334.397 0 0 0 59.2 52.57c36.91 25.73 68.28 36.85 74.16 38.8.25.09 6.07 2.11 9 2.92.75.21 1.52.39 1.52.39l.49.11.5-.11s.81-.17 1.57-.39c2.91-.82 8.73-2.84 8.94-2.92 5.89-2 37.15-13 74.06-38.74a334.315 334.315 0 0 0 59.25-52.58A314.42 314.42 0 0 0 708.81 604c12.17-27.51 21.13-59.16 27.31-96.5h28c1.11-7 3-18.73 3-18.73H663.8c-44-.83-56.77.84-67.46-6.8"/>
   </g>
   <defs>
      <clipPath id="a">
         <path fill="#fff" d="M0 0h1024v1024H0z"/>
      </clipPath>
   </defs>
</svg>
